X:402
T: Keine Freude mehr (125), S. 285
N: T0290
O: Luxemburg
S: Singendes Volk, Esch-Alzette 1937 posth.]
N: Blascheid, fff Barbara Kaisen-Kolbach, 1902
R: Liebeslieder]
M: 4/4
L: 1/16
K: C
G2G2F2 | E6G2c3BA3E | G2F2F4z2
F2F2d2 | d6c2B3AG3F | F2E2E4z2
G2A2B2 | c4c4e3dc3d | A8z2
c2B2A2 | G6B2A4G3F | E8z2
G2A2B2 | c4c4e3dc3d | A8z2
c2B2A2 | G6B2A4G3F | E8z2

@@@ Tune index: 8456
